dist/img/content/how-it-works/03.svg

<svg width="27" height="45" viewBox="0 0 27 45" fill="none" xmlns="http://www.w3.org/2000/svg">
<path d="M20.5312 2.10938H3.65625L0.84375 5.625V11.9531H7.875V7.73438H16.3125V18.2812H7.875V25.3125H16.3125V34.4531H7.875V30.2344H0.84375V36.5625L3.65625 40.0781H20.5312L23.3438 36.5625V5.625L20.5312 2.10938Z" fill="#FFB07B"/>
<path d="M3.65625 40.0781L6.46875 42.8906H23.3438L20.5312 40.0781H3.65625Z" fill="#9E734C"/>
<path d="M20.5312 40.0781L23.3438 36.5625L26.1562 39.375L23.3438 42.8906L20.5312 40.0781Z" fill="#9E734C"/>
<path d="M23.3438 5.625L26.1562 9.84375V39.375L23.3438 36.5625V5.625Z" fill="#C09267"/>
<path d="M0.84375 11.9531L3.65625 14.7656H10.6875L7.875 11.9531H0.84375Z" fill="#9E734C"/>
<path d="M7.875 7.73438L10.6875 10.5469V14.7656L7.875 11.9531V7.73438Z" fill="#C09267"/>
<path d="M10.6875 10.5469H16.3125V7.73438H7.875L10.6875 10.5469ZM7.875 25.3125L10.6875 28.125H16.3125V25.3125H7.875Z" fill="#9E734C"/>
<path d="M7.875 30.2344L10.6875 33.0469V34.4531H7.875V30.2344Z" fill="#C09267"/>
<path d="M3.10711 40.5176C3.12399 40.538 3.15914 40.5752 3.15914 40.5752L5.97164 43.3877C6.10347 43.5196 6.28229 43.5937 6.46875 43.5938H23.3831C23.4818 43.5882 23.5782 43.5619 23.666 43.5166C23.7539 43.4713 23.8312 43.408 23.8929 43.3308L26.7005 39.8109C26.8017 39.6881 26.8578 39.5342 26.8594 39.375V9.84375C26.8592 9.7049 26.8181 9.56918 26.7413 9.45352L23.9288 5.23477C23.917 5.21819 23.9051 5.20179 23.8929 5.18555L21.0804 1.66992C21.0145 1.58761 20.9309 1.52117 20.8359 1.47553C20.7408 1.42989 20.6367 1.40621 20.5313 1.40625H3.65625C3.55081 1.40621 3.4467 1.42989 3.35165 1.47553C3.25659 1.52117 3.17301 1.58761 3.10711 1.66992L0.294611 5.18555C0.19486 5.31029 0.140552 5.46528 0.140627 5.625V11.9531C0.140415 12.0457 0.158578 12.1373 0.194064 12.2228C0.22955 12.3082 0.281651 12.3858 0.347345 12.4509L3.15985 15.2634C3.29162 15.3949 3.47013 15.4687 3.65625 15.4688H10.6875C10.874 15.4688 11.0528 15.3947 11.1847 15.2628C11.3165 15.1309 11.3906 14.9521 11.3906 14.7656V11.25H15.6094V17.5781H7.875C7.68852 17.5781 7.50968 17.6522 7.37782 17.7841C7.24596 17.9159 7.17188 18.0948 7.17188 18.2812V25.3125C7.17166 25.405 7.18983 25.4967 7.22531 25.5821C7.2608 25.6676 7.3129 25.7452 7.3786 25.8103L10.1911 28.6228C10.3229 28.7543 10.5014 28.8281 10.6875 28.8281H15.6094V33.75H11.3906V33.0469C11.3906 32.8604 11.3165 32.6816 11.1846 32.5498L8.37211 29.7373C8.30698 29.6718 8.2295 29.6199 8.14418 29.5845C8.05885 29.5491 7.96736 29.531 7.875 29.5312H0.843752C0.657272 29.5312 0.478429 29.6053 0.346568 29.7372C0.214706 29.8691 0.140627 30.0479 0.140627 30.2344V36.5625C0.140552 36.7222 0.19486 36.8772 0.294611 37.002L3.10711 40.5176ZM6.75985 42.1875L5.3536 40.7812H20.2402L21.6464 42.1875H6.75985ZM24.0469 7.94531L25.4531 10.0547V37.6777L24.0469 36.2714V7.94531ZM25.2141 39.4249L23.2854 41.8359L21.4734 40.0261L23.4021 37.6172L25.2141 39.4249ZM3.94735 14.0625L2.5411 12.6562H7.58391L8.99016 14.0625H3.94735ZM9.98438 13.0683L8.57813 11.662V9.43172L9.98438 10.838V13.0683ZM10.9786 9.84375L9.57235 8.4375H15.6094V9.84375H10.9786ZM10.9786 27.4219L9.57235 26.0156H15.6094V27.4219H10.9786ZM8.57813 31.9317L9.98438 33.338V33.75H8.57813V31.9317ZM1.54688 30.9375H7.17188V34.4531C7.17188 34.6396 7.24596 34.8184 7.37782 34.9503C7.50968 35.0822 7.68852 35.1562 7.875 35.1562H16.3125C16.499 35.1562 16.6778 35.0822 16.8097 34.9503C16.9415 34.8184 17.0156 34.6396 17.0156 34.4531V25.3125C17.0156 25.126 16.9415 24.9472 16.8097 24.8153C16.6778 24.6835 16.499 24.6094 16.3125 24.6094H8.57813V18.9844H16.3125C16.499 18.9844 16.6778 18.9103 16.8097 18.7784C16.9415 18.6466 17.0156 18.4677 17.0156 18.2812V7.73438C17.0156 7.54789 16.9415 7.36905 16.8097 7.23719C16.6778 7.10533 16.499 7.03125 16.3125 7.03125H7.875C7.68852 7.03125 7.50968 7.10533 7.37782 7.23719C7.24596 7.36905 7.17188 7.54789 7.17188 7.73438V11.25H1.54688V5.8718L3.99375 2.8125H20.1938L22.6406 5.8718V36.3171L20.1938 39.375H3.99375L1.54688 36.3157V30.9375Z" fill="#222831"/>
</svg>

<svg width="27" height="45" fill="none" xmlns="http://www.w3.org/2000/svg"><path d="M20.531 2.11H3.656L.844 5.624v6.328h7.031V7.734h8.438v10.547H7.874v7.032h8.438v9.14H7.874v-4.219H.844v6.328l2.812 3.516h16.875l2.813-3.516V5.625L20.53 2.109z" fill="#FFB07B"/><path d="M3.656 40.078l2.813 2.813h16.875l-2.813-2.813H3.656z" fill="#9E734C"/><path d="M20.531 40.078l2.813-3.516 2.812 2.813-2.812 3.516-2.813-2.813z" fill="#9E734C"/><path d="M23.344 5.625l2.812 4.219v29.531l-2.812-2.813V5.625z" fill="#C09267"/><path d="M.844 11.953l2.812 2.813h7.031l-2.812-2.813H.844z" fill="#9E734C"/><path d="M7.875 7.734l2.813 2.813v4.219l-2.813-2.813V7.734z" fill="#C09267"/><path d="M10.688 10.547h5.624V7.734H7.876l2.813 2.813zM7.874 25.312l2.813 2.813h5.624v-2.813H7.876z" fill="#9E734C"/><path d="M7.875 30.234l2.813 2.813v1.406H7.874v-4.219z" fill="#C09267"/><path d="M3.107 40.518l.052.057 2.813 2.813a.7.7 0 00.497.206h16.914a.704.704 0 00.51-.263l2.808-3.52a.697.697 0 00.158-.436V9.844a.707.707 0 00-.118-.39l-2.812-4.22a2.363 2.363 0 00-.036-.048L21.08 1.67a.704.704 0 00-.549-.264H3.656a.703.703 0 00-.549.264L.295 5.186a.703.703 0 00-.154.439v6.328a.7.7 0 00.206.498l2.813 2.812a.7.7 0 00.496.206h7.031a.703.703 0 00.704-.703V11.25h4.218v6.328H7.875a.703.703 0 00-.703.703v7.032a.699.699 0 00.207.497l2.812 2.813c.132.131.31.205.496.205h4.922v4.922h-4.218v-.703a.703.703 0 00-.206-.497l-2.813-2.813a.7.7 0 00-.497-.206H.844a.703.703 0 00-.703.703v6.328c0 .16.054.315.154.44l2.812 3.516zm3.653 1.67L5.354 40.78H20.24l1.406 1.407H6.76zM24.047 7.944l1.406 2.11v27.623l-1.406-1.407V7.945zm1.167 31.48l-1.929 2.41-1.812-1.809 1.93-2.409 1.811 1.808zM3.947 14.063l-1.406-1.407h5.043l1.406 1.406H3.947zm6.037-.995l-1.406-1.406v-2.23l1.406 1.406v2.23zm.995-3.224L9.572 8.438h6.037v1.406h-4.63zm0 17.578l-1.407-1.406h6.037v1.406h-4.63zm-2.4 4.51l1.405 1.406v.412H8.578v-1.818zm-7.032-.994h5.625v3.515a.703.703 0 00.703.703h8.438a.703.703 0 00.703-.703v-9.14a.703.703 0 00-.703-.704H8.578v-5.625h7.735a.703.703 0 00.703-.703V7.734a.703.703 0 00-.703-.703H7.874a.703.703 0 00-.703.703v3.516H1.547V5.872l2.447-3.06h16.2l2.447 3.06v30.445l-2.447 3.058h-16.2l-2.447-3.06v-5.377z" fill="#222831"/></svg>
